svg/fluentui-system-icons/ic_fluent_zoom_in_20_regular.svg

<svg width="20" height="20" viewBox="0 0 20 20" fill="none" xmlns="http://www.w3.org/2000/svg">
<path d="M11.5 8.5C11.5 8.22386 11.2761 8 11 8H9V6C9 5.72386 8.77614 5.5 8.5 5.5C8.22386 5.5 8 5.72386 8 6V8H6C5.72386 8 5.5 8.22386 5.5 8.5C5.5 8.77614 5.72386 9 6 9H8V11C8 11.2761 8.22386 11.5 8.5 11.5C8.77614 11.5 9 11.2761 9 11V9H11C11.2761 9 11.5 8.77614 11.5 8.5ZM8.5 3C11.5376 3 14 5.46243 14 8.5C14 9.83879 13.5217 11.0659 12.7266 12.0196L16.8536 16.1464C17.0488 16.3417 17.0488 16.6583 16.8536 16.8536C16.68 17.0271 16.4106 17.0464 16.2157 16.9114L16.1464 16.8536L12.0196 12.7266C11.0659 13.5217 9.83879 14 8.5 14C5.46243 14 3 11.5376 3 8.5C3 5.46243 5.46243 3 8.5 3ZM8.5 4C6.01472 4 4 6.01472 4 8.5C4 10.9853 6.01472 13 8.5 13C10.9853 13 13 10.9853 13 8.5C13 6.01472 10.9853 4 8.5 4Z" fill="#212121"/>
</svg>

<svg xmlns="http://www.w3.org/2000/svg" width="20" height="20"><path d="M11.5 8.5A.5.5 0 0 0 11 8H9V6a.5.5 0 0 0-1 0v2H6a.5.5 0 0 0 0 1h2v2a.5.5 0 0 0 1 0V9h2a.5.5 0 0 0 .5-.5ZM8.5 3a5.5 5.5 0 0 1 4.227 9.02l4.127 4.126a.5.5 0 0 1-.638.765l-.07-.057-4.126-4.127A5.5 5.5 0 1 1 8.5 3Zm0 1a4.5 4.5 0 1 0 0 9 4.5 4.5 0 0 0 0-9Z"/></svg>
